X: 291
T: Maureen's Waltz
C: Bert Murray
R: waltz
B: Bert Murray's "Bon Accord Collection" 1999 p.29
%
N: This tune was written for Maureen Rutherford, a brilliant pianist.
Z: 2010 John Chambers <jc:trillian.mit.edu>
N: Corrected missing half beat in bar 57, in the obvious way.
M: 3/4
L: 1/8
K: Bb
uF2 |\
d3 ^c d=c | B2 F2 D2 | E3 G B2 | F4 F2 |\
d3 ^c de | f2 d2 B2 | G2 A3 B | c4 F2 |
d3 ^c d=c | B2 A2 _A2 | G3 ^F GB | F4 D2 |\
E2 G2 B2 | F2 B3 G | A2 d3 c | B4 F2 |
d3 ^c d=c | B2 F2 D2 | EG,B,E GB | F4 F2 |\
d3 ^c de | f2 d2 B2 | G^FGA BG | c4 F2 |
d3 ^c d=c | B2 A2 _A2 | G3 ^F GB | F4 D2 |\
EG,B,E GB | F2 B3 G | A2 d3 c | B4 ||
B2 |\
A3 ^G AB | c2 A2 F2 | B3 A Bc | d6 |\
e3 G Be | d3 F Bd | G2 c3 B | A2 G2 F2 |
A3 ^G AB | c2 A2 F2 | B3 A Bc | d2 F2 D2 |\
E2 G3 E | F2 B3 G | A2 d3 c | B4 B2 |
A3 ^G AB | c2 A2 F2 | B3 A Bc | d6 |\
e2 g3 e | d2 F3 B | G2 c3 B | A2 G2 F2 |
A3 ^G AB | c2 A2 F2 | B3 A BG | F4 F2 |\
EG,B,E GB | F2 B3 G | A2 d3 c | B6- | B4 |]

%%sep 2 1 500

